Adwaita++-Dark/actions/22/show-menu.svg

<svg height="22" viewBox="0 0 22 22" width="22" xmlns="http://www.w3.org/2000/svg">
  <path d="m10.583984 1.5546875-1.3378902 2.5117187h-9.2460938v7.8671878h5.0566406l-.9628906 1.80664 1.3222656.705078 1.3378906-2.511718h9.2460938v-7.8671878h-5.056641l.962891-1.8066406zm-9.81640588 3.0449219h8.19335938l-.4980469.9375h-.1210937v.2265625l-1.4589844 2.7402343v-1.5351562h-.7597656v2.9609375l-.7832031 1.4707035h-4.57226568zm9.89257788 0h4.572266v6.8007816h-8.1933595l1.3027344-2.447266v1.447266h.7597656v-2.8730472zm-4.1523435 1.0839844c-.1248 0-.2319594.0299475-.3183594.0859374-.0832.0565301-.125.1466844-.125.2714844 0 .1232.0418.2133504.125.2714844.0864.05813.1935594.0878906.3183594.0878906.122666 0 .226634-.0297606.3125-.0878906.08907-.06027.1328125-.1504184.1328125-.2714844 0-.0624-.0120394-.1164232-.0371094-.1601562-.0224-.04533-.0541031-.0819971-.0957031-.1113282-.03893-.0288-.0865821-.0496999-.1425781-.0625-.0528-.0144-.1085889-.0234374-.1699219-.0234374zm-4.484375.1484374v4.5683598h.7753906v-1.931641h2.2304688v-.5117188h-2.2304688v-1.6132812h2.390625v-.5117188zm10.1757815 1.0742188c-.281067 0-.537885.0394898-.771485.1210938-.230934.08107-.429303.2011558-.595703.3574218-.166934.154134-.296939.3415192-.388672.5644532-.09173.2229329-.136718.4765656-.136718.7597656 0 .281067.05066.531334.15039.75.100267.2192.241608.4025147.421875.5507816.184.147734.401497.26109.654297.33789.2528.07733.532291.115234.837891.115235.141867 0 .271159-.005672.390625-.013672.122133-.0085.240095-.020393.351562-.039063.114133-.01867.224478-.042935.330078-.072265.108267-.02933.217192-.063511.328125-.103516v-.5058594c-.108266.03787-.214712.0720497-.320312.1035156-.1056.0288001-.216478.0534188-.330078.0742188-.111466.01867-.226943.0328387-.34961.0429688-.119466.0106699-.250711.0156249-.392578.015625-.419733 0-.737306-.0933382-.951172-.2832032-.2112-.189334-.324023-.4865378-.33789-.8886718h2.886718v-.3515626c0-.2287999-.0418-.437267-.125-.625-.080529-.1893339-.196543-.351042-.349609-.484375-.152534-.135473-.341347-.239433-.560547-.3125-.219734-.0746659-.466987-.1132812-.742187-.1132812zm-.015625.4726562c.172267 0 .318739.0224894.441406.0683594.122133.04587.222914.1101594.300781.1933594.08107.0832.140047.1838014.175781.3027344.038931.116267.058594.2468048.058594.3886718h-2.052734c.03093-.3103999.136845-.5482715.320312-.7109374.186133-.162667.438527-.2421875.75586-.2421876z" fill="#e6ddff" transform="translate(3 3)"/>
</svg>

<svg xmlns="http://www.w3.org/2000/svg" width="22" height="22" viewBox="0 0 22 22">
 <defs>
  <style id="current-color-scheme" type="text/css">
   .ColorScheme-Text { color:#E6DDFF; } .ColorScheme-Highlight { color:#4285f4; }
  </style>
 </defs>
 <path style="fill:currentColor" class="ColorScheme-Text" d="M 10.583984 1.5546875 L 9.2460938 4.0664062 L 0 4.0664062 L 0 11.933594 L 5.0566406 11.933594 L 4.09375 13.740234 L 5.4160156 14.445312 L 6.7539062 11.933594 L 16 11.933594 L 16 4.0664062 L 10.943359 4.0664062 L 11.90625 2.2597656 L 10.583984 1.5546875 z M 0.76757812 4.5996094 L 8.9609375 4.5996094 L 8.4628906 5.5371094 L 8.3417969 5.5371094 L 8.3417969 5.7636719 L 6.8828125 8.5039062 L 6.8828125 6.96875 L 6.1230469 6.96875 L 6.1230469 9.9296875 L 5.3398438 11.400391 L 0.76757812 11.400391 L 0.76757812 4.5996094 z M 10.660156 4.5996094 L 15.232422 4.5996094 L 15.232422 11.400391 L 7.0390625 11.400391 L 8.3417969 8.953125 L 8.3417969 10.400391 L 9.1015625 10.400391 L 9.1015625 7.5273438 L 10.660156 4.5996094 z M 6.5078125 5.6835938 C 6.3830125 5.6835938 6.2758531 5.7135413 6.1894531 5.7695312 C 6.1062531 5.8260613 6.0644531 5.9162156 6.0644531 6.0410156 C 6.0644531 6.1642156 6.1062531 6.254366 6.1894531 6.3125 C 6.2758531 6.37063 6.3830125 6.4003906 6.5078125 6.4003906 C 6.6304785 6.4003906 6.7344465 6.37063 6.8203125 6.3125 C 6.9093825 6.25223 6.953125 6.1620816 6.953125 6.0410156 C 6.953125 5.9786156 6.9410856 5.9245924 6.9160156 5.8808594 C 6.8936156 5.8355294 6.8619125 5.7988623 6.8203125 5.7695312 C 6.7813825 5.7407312 6.7337304 5.7198313 6.6777344 5.7070312 C 6.6249344 5.6926312 6.5691455 5.6835938 6.5078125 5.6835938 z M 2.0234375 5.8320312 L 2.0234375 10.400391 L 2.7988281 10.400391 L 2.7988281 8.46875 L 5.0292969 8.46875 L 5.0292969 7.9570312 L 2.7988281 7.9570312 L 2.7988281 6.34375 L 5.1894531 6.34375 L 5.1894531 5.8320312 L 2.0234375 5.8320312 z M 12.199219 6.90625 C 11.918152 6.90625 11.661334 6.9457398 11.427734 7.0273438 C 11.1968 7.1084138 10.998431 7.2284996 10.832031 7.3847656 C 10.665097 7.5388996 10.535092 7.7262848 10.443359 7.9492188 C 10.351629 8.1721517 10.306641 8.4257844 10.306641 8.7089844 C 10.306641 8.9900514 10.357301 9.2403184 10.457031 9.4589844 C 10.557298 9.6781844 10.698639 9.8614991 10.878906 10.009766 C 11.062906 10.1575 11.280403 10.270856 11.533203 10.347656 C 11.786003 10.424986 12.065494 10.46289 12.371094 10.462891 C 12.512961 10.462891 12.642253 10.457219 12.761719 10.449219 C 12.883852 10.440719 13.001814 10.428826 13.113281 10.410156 C 13.227414 10.391486 13.337759 10.367221 13.443359 10.337891 C 13.551626 10.308561 13.660551 10.27438 13.771484 10.234375 L 13.771484 9.7285156 C 13.663218 9.7663856 13.556772 9.8005653 13.451172 9.8320312 C 13.345572 9.8608313 13.234694 9.88545 13.121094 9.90625 C 13.009628 9.92492 12.894151 9.9390887 12.771484 9.9492188 C 12.652018 9.9598887 12.520773 9.9648437 12.378906 9.9648438 C 11.959173 9.9648438 11.6416 9.8715056 11.427734 9.6816406 C 11.216534 9.4923066 11.103711 9.1951028 11.089844 8.7929688 L 13.976562 8.7929688 L 13.976562 8.4414062 C 13.976562 8.2126063 13.934762 8.0041392 13.851562 7.8164062 C 13.771033 7.6270723 13.655019 7.4653642 13.501953 7.3320312 C 13.349419 7.1965582 13.160606 7.0925982 12.941406 7.0195312 C 12.721672 6.9448653 12.474419 6.90625 12.199219 6.90625 z M 12.183594 7.3789062 C 12.355861 7.3789062 12.502333 7.4013956 12.625 7.4472656 C 12.747133 7.4931356 12.847914 7.557425 12.925781 7.640625 C 13.006851 7.723825 13.065828 7.8244264 13.101562 7.9433594 C 13.140493 8.0596264 13.160156 8.1901642 13.160156 8.3320312 L 11.107422 8.3320312 C 11.138352 8.0216313 11.244267 7.7837597 11.427734 7.6210938 C 11.613867 7.4584268 11.866261 7.3789063 12.183594 7.3789062 z" transform="translate(3 3)"/>
</svg>
